configs/network-icons/lisk-dark.svg

<svg width="30" height="30" viewBox="0 0 30 30" fill="none" xmlns="http://www.w3.org/2000/svg">
<path fill-rule="evenodd" clip-rule="evenodd" d="M12.1961 4.31372L14.7451 0L27.2941 21.7647V21.9608L20.0392 30H14.1569V29.8039L18.0785 25.2941L21.8039 21.1765V20.9804L14.7451 9.01961L12.1961 4.5098V4.31372ZM15.9216 25.4901L12 29.8039H9.2549L2 21.7647V21.5686L11.0196 6.07838H11.2157L13.7647 10.3921V10.5882L7.68628 20.9803V21.1764L11.4118 25.2941H15.9216V25.4901Z" fill="white"/>
</svg>

<svg xmlns="http://www.w3.org/2000/svg" fill="none" viewBox="0 0 30 30">
  <path fill="#fff" fill-rule="evenodd" d="M12.196 4.314 14.746 0l12.548 21.765v.196L20.04 30h-5.882v-.196l3.921-4.51 3.726-4.117v-.197l-7.06-11.96-2.549-4.51v-.196Zm3.726 21.176L12 29.804H9.255L2 21.764v-.195l9.02-15.49h.196l2.549 4.313v.196L7.686 20.98v.196l3.726 4.118h4.51v.196Z" clip-rule="evenodd"/>
</svg>
